svgs/desmos.svg

<svg width="192" height="192" viewBox="0 0 192 192" fill="none" xmlns="http://www.w3.org/2000/svg">
<path d="M171.999 126.391C171.234 125.872 170.455 125.374 169.708 124.831C164.795 121.269 160.406 121.121 155.711 124.966C152.259 127.794 149.27 131.199 145.97 134.229C142.306 137.591 138.761 141.165 134.74 144.029C127.669 149.066 120.119 149.236 112.517 144.966C108.039 142.452 104.465 138.838 100.889 135.208C97.7763 132.049 94.6429 128.905 91.4156 125.869C90.2705 124.792 88.8998 123.891 87.4972 123.186C83.9591 121.41 80.5228 122.17 77.3652 124.206C75.6276 125.327 74.0333 126.73 72.5378 128.18C68.4577 132.138 64.5306 136.261 60.4166 140.18C57.258 143.188 53.7007 145.648 49.5093 146.991C42.5629 149.218 36.27 147.511 30.615 143.298C27.4013 140.903 24.5651 137.982 21.5565 135.301C21.0435 134.844 20.5198 134.398 20 133.948C20 128.707 20 123.467 20 118.227C22.4887 120.672 24.9658 123.131 27.47 125.561C30.01 128.025 32.46 130.606 35.1578 132.879C41.0296 137.827 46.1377 137.855 51.9418 132.794C56.1797 129.099 60.1301 125.061 64.1772 121.142C67.6252 117.803 71.1158 114.567 75.6083 112.665C82.5933 109.71 89.0595 111.087 95.2314 114.965C99.9562 117.934 103.568 122.184 107.461 126.119C110.19 128.876 112.933 131.695 116.032 133.978C121.228 137.807 125.174 137.653 130.24 133.605C133.418 131.064 136.276 128.108 139.266 125.325C142.548 122.27 145.652 118.991 149.123 116.179C156.113 110.517 163.791 109.36 172 113.39V126.39L171.999 126.391Z" stroke="black" stroke-width="8" stroke-linejoin="round"/>
<path d="M160 36.001C159.979 36.3878 160.023 36.7922 159.929 37.1606C153.652 61.4638 146.502 85.4794 136.777 108.645C133.3 116.926 129.397 124.985 124.755 132.674C124.045 133.851 123.227 134.166 121.957 133.924C118.748 133.316 116.437 131.258 114 129.159C114.82 127.815 115.596 126.56 116.356 125.295C122.72 114.723 127.256 103.302 131.593 91.7936C138.343 73.8813 143.71 55.5277 148.605 37.0264C148.694 36.693 148.721 36.3421 148.777 36C152.519 36 156.259 36.001 160 36.001Z" stroke="black" stroke-width="8" stroke-linejoin="round"/>
<path d="M39.2087 36C40.7024 41.4111 42.1585 46.8338 43.6945 52.2323C49.2565 71.7811 55.6053 91.0534 63.7969 109.673C64.4711 111.206 65.2376 112.701 65.8724 114.25C66.0378 114.653 66.0648 115.4 65.8185 115.643C63.3294 118.091 60.7701 120.466 58.0838 123C57.7405 122.386 57.4125 121.863 57.1451 121.31C51.083 108.778 46.3038 95.729 41.744 82.5956C36.5388 67.6024 31.9279 52.4257 28.1183 37.0091C28.0375 36.6834 28.0375 36.3364 28 36C31.7366 36 35.4721 36 39.2087 36Z" stroke="black" stroke-width="8" stroke-linejoin="round"/>
<path d="M67.001 138.097C69.6778 135.309 72.1746 132.707 74.7726 130C75.6745 131.208 76.4715 132.537 77.5139 133.622C80.2186 136.436 82.8079 139.438 85.8515 141.826C90.9674 145.839 96.0419 145.798 101.409 142.165C102.441 141.467 102.971 141.608 103.893 142.337C106.253 144.201 108.754 145.878 111.198 147.632C111.427 147.796 111.653 147.968 112 148.224C107.047 152.706 101.571 155.645 94.9273 155.972C89.2945 156.249 84.2941 154.446 79.7306 151.215C74.6291 147.602 70.5999 142.923 67.001 138.097Z" stroke="black" stroke-width="8" stroke-linejoin="round"/>
</svg>

<svg width="192" height="192" viewBox="0 0 192 192" fill="none" xmlns="http://www.w3.org/2000/svg"><path d="M171.999 126.391c-.765-.519-1.544-1.017-2.291-1.56-4.913-3.562-9.302-3.71-13.997.135-3.452 2.828-6.441 6.233-9.741 9.263-3.664 3.362-7.209 6.936-11.23 9.8-7.071 5.037-14.621 5.207-22.223.937-4.478-2.514-8.052-6.128-11.628-9.758-3.113-3.159-6.246-6.303-9.473-9.339-1.145-1.077-2.516-1.978-3.919-2.683-3.538-1.776-6.974-1.016-10.132 1.02-1.737 1.121-3.332 2.524-4.827 3.974-4.08 3.958-8.007 8.081-12.121 12-3.159 3.008-6.716 5.468-10.908 6.811-6.946 2.227-13.239.52-18.894-3.693-3.214-2.395-6.05-5.316-9.058-7.997-.513-.457-1.037-.903-1.557-1.353v-15.721c2.489 2.445 4.966 4.904 7.47 7.334 2.54 2.464 4.99 5.045 7.688 7.318 5.872 4.948 10.98 4.976 16.784-.085 4.238-3.695 8.188-7.733 12.235-11.652 3.448-3.339 6.939-6.575 11.431-8.477 6.985-2.955 13.451-1.578 19.623 2.3 4.725 2.969 8.337 7.219 12.23 11.154 2.729 2.757 5.472 5.576 8.571 7.859 5.196 3.829 9.142 3.675 14.208-.373 3.178-2.541 6.036-5.497 9.026-8.28 3.282-3.055 6.386-6.334 9.857-9.146 6.99-5.662 14.668-6.819 22.877-2.789v13l-.001.001Z" stroke="#000" stroke-width="8" stroke-linejoin="round"/><path d="M160 36.001c-.021.387.023.791-.071 1.16-6.277 24.303-13.427 48.318-23.152 71.484-3.477 8.281-7.38 16.34-12.022 24.029-.71 1.177-1.528 1.492-2.798 1.25-3.209-.608-5.52-2.666-7.957-4.765.82-1.344 1.596-2.599 2.356-3.864 6.364-10.572 10.9-21.993 15.237-33.501 6.75-17.913 12.117-36.266 17.012-54.768.089-.333.116-.684.172-1.026l11.223.001ZM39.209 36c1.493 5.411 2.95 10.834 4.485 16.232 5.563 19.55 11.911 38.821 20.103 57.441.674 1.533 1.44 3.028 2.075 4.577.166.403.193 1.15-.053 1.393-2.49 2.448-5.049 4.823-7.735 7.357-.344-.614-.672-1.137-.939-1.69-6.062-12.532-10.841-25.581-15.401-38.714-5.205-14.994-9.816-30.17-13.626-45.587-.08-.326-.08-.673-.118-1.009h11.209ZM67.001 138.097 74.773 130c.901 1.208 1.699 2.537 2.74 3.622 2.706 2.814 5.295 5.816 8.338 8.204 5.116 4.013 10.19 3.972 15.558.339 1.032-.698 1.562-.557 2.484.172 2.36 1.864 4.861 3.541 7.305 5.295.229.164.455.336.802.592-4.953 4.482-10.429 7.421-17.073 7.748-5.633.277-10.633-1.526-15.196-4.757-5.102-3.613-9.131-8.292-12.73-13.118Z" stroke="#000" stroke-width="8" stroke-linejoin="round"/></svg>
